public/assets/images/flower3.svg

<svg width="328" height="574" viewBox="0 0 328 574" fill="none" xmlns="http://www.w3.org/2000/svg">
<path d="M174.151 286.601C168.471 284.894 162.537 282.081 157.497 279.494C146.897 273.881 137.724 267.521 129.897 258.308C124.591 252.628 122.844 249.174 119.284 241.428C118.511 239.721 117.671 238.054 116.804 236.388C125.617 236.334 134.404 235.294 142.91 232.921C150.31 230.654 158.391 228.654 164.604 223.881C166.337 222.854 168.017 221.734 169.617 220.508C174.151 242.548 178.11 264.721 181.777 286.934C181.697 287.028 181.657 287.121 181.684 287.228C181.724 287.361 181.791 287.454 181.871 287.534C181.884 287.601 181.897 287.654 181.897 287.708C179.297 287.481 176.711 287.174 174.151 286.601ZM135.577 230.668C146.884 229.054 157.631 224.814 167.084 218.401C167.684 218.014 168.311 217.641 168.924 217.268C169.031 217.748 169.124 218.228 169.231 218.708C163.777 222.268 157.977 225.294 152.044 228.041C150.764 228.348 149.497 228.641 148.231 228.961C141.457 230.454 134.564 231.428 127.644 231.934C125.337 232.068 122.644 232.068 119.804 231.988C125.071 231.721 130.35 231.388 135.577 230.668ZM208.857 571.828C211.377 555.441 213.004 538.908 214.031 522.361C215.537 500.401 217.097 478.414 215.577 456.414C215.004 445.548 213.631 434.748 212.724 423.908C211.404 407.068 209.324 390.348 206.577 373.681C202.257 345.561 198.071 317.414 193.297 289.361C198.177 290.228 203.097 290.788 208.071 290.641C203.031 290.494 198.057 289.734 193.164 288.561C193.151 288.521 193.151 288.494 193.151 288.454C193.631 288.081 194.111 287.708 194.591 287.334C205.537 284.841 218.511 278.361 225.084 273.628C233.377 267.481 242.551 262.548 250.351 255.734C257.417 249.894 262.737 242.414 268.377 235.268C273.364 229.374 278.937 223.988 283.564 217.788C286.831 213.281 289.297 208.241 291.724 203.254C294.644 197.041 297.884 188.761 300.831 181.334C301.417 181.441 302.004 181.521 302.617 181.574C309.564 182.188 317.791 181.254 322.817 175.934C327.551 168.721 327.75 159.281 326.044 151.054C325.07 147.881 324.004 144.294 321.337 142.121C315.644 137.868 307.884 138.268 301.337 140.028C301.124 140.028 300.924 140.014 300.724 140.028C298.191 140.001 295.804 140.681 293.671 141.854C289.991 143.241 287.324 145.534 286.497 149.148C286.017 150.014 285.591 150.921 285.257 151.854C283.217 157.921 285.671 163.921 287.817 169.614C279.257 190.281 275.231 208.494 259.084 224.974C249.284 235.868 242.164 249.108 230.657 258.454C230.031 258.961 228.71 260.041 228.11 260.521C223.004 264.521 216.257 270.708 213.11 273.308C207.924 277.254 202.191 280.428 196.351 283.308C195.404 283.734 194.43 284.174 193.444 284.574C195.27 282.028 197.044 279.428 198.764 276.814C211.711 257.028 224.217 236.694 232.671 214.534C237.404 202.548 240.644 190.081 243.137 177.468C247.924 154.761 250.764 131.508 249.497 108.294C249.391 105.668 249.217 103.054 249.031 100.441C252.484 101.694 256.204 102.214 259.831 101.841C264.977 101.188 270.937 98.5211 271.751 92.8145C272.004 88.1478 272.031 83.3211 270.071 79.0011C269.751 77.6944 269.311 76.4144 268.737 75.1878C268.564 74.7211 268.364 74.2544 268.11 73.8278C268.017 73.6811 267.911 73.5611 267.817 73.4278C266.871 71.8278 265.711 70.3611 264.364 69.1344C263.071 68.0277 261.63 67.0944 260.11 66.3211C255.324 63.2811 249.084 61.3344 244.537 63.6544C243.577 63.7611 242.63 63.9211 241.71 64.1211C236.964 65.5344 233.204 69.8411 232.164 74.6811C231.231 76.6278 231.137 79.0678 231.924 82.7211C232.724 85.8411 234.377 88.4544 236.551 90.5878C238.964 94.4678 242.577 97.5211 246.724 99.4811C246.004 104.854 245.164 110.214 244.417 115.574C241.217 134.374 236.897 152.948 232.004 171.361C228.324 185.908 224.884 200.508 220.351 214.814C214.657 232.761 207.031 250.014 199.471 267.228C197.044 272.548 194.791 277.948 192.271 283.214C190.497 273.014 188.644 262.841 186.671 252.668C184.164 239.961 181.644 227.228 178.951 214.534C183.964 203.908 188.884 193.228 193.817 182.561C200.057 169.694 206.204 156.788 211.737 143.601C216.044 133.108 219.951 122.441 224.164 111.921C227.057 101.881 228.657 91.5077 230.071 81.1744C232.164 67.1744 231.591 52.801 228.857 38.9077C230.551 37.4677 231.871 35.5877 232.631 33.2011C234.471 29.3477 234.151 25.0145 233.084 20.9878C232.244 17.5878 231.244 14.1479 228.977 11.4012C223.47 6.3612 216.697 1.90786 209.084 1.2012C204.057 0.774531 198.097 0.654479 194.324 4.54781C190.244 8.88115 190.084 15.1478 189.644 20.7611C189.097 24.7211 189.431 29.1077 192.617 31.9077C195.217 34.1877 198.324 35.8011 201.657 36.8278C203.764 39.3878 206.564 41.3077 209.977 42.041C211.217 42.3477 212.524 42.5611 213.857 42.6811C214.711 47.5745 215.204 52.4277 215.631 57.3344C216.791 74.1877 214.657 91.0944 211.364 107.601C208.111 118.614 203.75 129.308 200.577 140.361C197.004 150.948 193.284 161.481 189.591 172.028C191.631 157.708 192.884 143.254 194.591 128.894C195.644 120.481 196.417 112.028 195.844 103.548C196.444 103.014 196.604 102.321 196.071 101.534C198.777 101.441 201.457 100.894 203.884 99.8944C208.337 97.6944 211.524 92.6277 211.351 87.641C210.964 82.5877 207.977 78.2944 204.937 74.4278C202.364 71.0678 199.71 67.5478 195.844 65.5878C188.804 61.7078 178.231 59.5344 172.351 66.4278C164.924 76.2544 171.617 89.7078 179.177 97.4145C180.657 98.8811 182.071 100.588 183.684 101.961C183.684 101.988 183.684 102.014 183.684 102.041C184.257 109.494 184.204 116.961 183.657 124.401C182.991 141.588 182.777 158.788 182.697 175.974C182.231 186.721 180.43 197.388 177.51 207.734C172.577 185.188 166.857 162.828 159.084 141.068C150.537 115.361 138.124 91.1878 128.044 66.0811C126.67 62.7478 125.337 59.3878 124.044 56.0145C123.204 50.2411 121.991 44.4011 120.497 38.6278C127.444 37.1611 133.137 31.0678 135.444 24.4811C135.897 20.6011 134.617 16.0677 132.764 12.6543C128.111 4.30766 117.777 -1.17229 108.324 1.44104C106.337 2.14771 104.711 3.46766 103.164 4.92099C103.137 4.92099 103.111 4.93453 103.084 4.93453C100.364 5.50786 98.9106 7.42781 98.3373 9.81448C97.3773 11.2811 96.8439 13.0412 96.4972 14.7345C94.7105 27.6812 103.644 38.721 116.857 38.9744C117.364 41.0544 117.937 43.1077 118.564 45.1344C122.097 62.7611 127.764 79.8945 133.551 96.8811C142.617 121.668 151.364 146.588 158.404 172.028C150.217 159.348 141.937 146.708 133.617 134.108C127.124 125.694 123.977 118.014 116.244 109.601C106.964 99.4944 94.7507 92.6411 82.7907 86.2278C75.6707 82.7878 68.2705 79.2811 60.5639 77.3211C60.3505 76.1078 60.0706 74.9077 59.6839 73.7744C56.3239 67.1744 48.5239 64.2144 41.2839 64.6944C38.2573 63.7078 35.0174 63.3211 31.8574 63.6944C27.4974 64.2411 24.4574 67.0677 22.6574 70.7344C21.2307 72.4011 20.2039 74.4811 19.6173 77.0811C18.7106 81.3611 17.0838 86.3211 19.3105 90.4278C23.7772 96.8278 32.3105 98.6277 39.9639 97.441C40.7239 97.5877 41.4172 97.7211 42.2438 97.9878C43.3238 98.2144 44.9906 98.481 46.004 97.841C47.6573 97.8277 49.284 97.5744 50.804 96.7744C51.5773 96.3877 52.0706 95.7744 52.2706 94.9344C52.3106 94.8011 52.364 94.6811 52.404 94.5478C54.764 93.8678 56.9105 92.6144 58.5105 90.7077C59.8705 88.5344 60.5773 86.0544 60.8173 83.4944C68.6039 85.9611 78.1106 90.7344 86.3506 95.6011C96.2706 101.361 104.244 107.241 111.484 116.201C115.577 121.321 119.324 127.654 125.871 135.174C137.284 150.174 148.831 165.054 160.524 179.841C160.604 180.201 160.711 180.548 160.804 180.894C162.244 186.841 163.617 192.814 164.951 198.788C159.391 190.201 153.911 181.481 147.604 173.241C141.844 166.548 134.604 161.388 128.124 155.441C124.031 151.948 119.151 147.308 113.817 143.014C113.817 141.254 113.497 139.361 112.737 137.254C108.897 130.921 103.311 124.761 96.004 122.641C92.324 121.668 88.5239 121.614 84.7639 121.894C81.8839 122.134 78.924 122.908 76.804 124.934C72.564 128.748 70.4306 134.241 70.3506 139.868C69.6173 144.814 70.8573 150.028 73.6706 154.148C79.4706 164.561 93.6972 167.161 104.044 162.508C108.284 160.068 111.297 155.561 112.51 150.774C116.004 153.574 119.564 156.534 123.831 159.881C128.364 163.348 132.937 166.601 137.017 170.094C142.737 174.748 147.084 180.748 151.751 186.401C156.511 192.241 161.217 198.121 166.084 203.868C166.871 207.454 167.617 211.054 168.364 214.641C167.124 215.121 165.87 215.601 164.644 216.108C160.577 217.814 157.284 219.414 154.271 220.414C144.004 224.441 132.604 226.508 123.284 226.748C120.071 226.841 115.964 227.161 112.124 227.481C111.377 225.988 110.657 224.481 109.991 222.948C109.031 220.774 108.164 218.734 107.377 216.788C109.55 216.014 111.657 215.014 113.617 213.734C115.897 212.281 118.231 210.561 119.097 207.881C120.191 203.748 121.497 199.121 119.937 194.948C119.271 193.574 118.457 192.228 117.577 190.948C117.097 189.108 116.417 187.321 115.431 185.681C112.191 180.054 105.164 178.854 99.2839 177.788C91.8839 176.574 83.2705 176.961 78.0972 183.134C76.9105 184.974 75.5772 186.841 74.3772 188.761C73.6572 189.734 73.0574 190.801 72.5907 191.934V191.948C72.564 192.014 72.5239 192.068 72.4972 192.134C71.3772 194.481 70.644 196.961 70.724 199.654C70.644 201.454 70.6972 203.294 71.2305 205.028C71.6039 205.894 72.1372 206.668 72.7105 207.401C72.8572 207.628 72.9905 207.868 73.1639 208.081C73.3105 208.214 73.4706 208.321 73.6173 208.441C74.3639 209.214 75.1905 209.934 76.0438 210.574C80.8572 214.388 86.5373 217.188 92.6173 218.201C92.7239 218.214 92.8306 218.214 92.9373 218.241C94.244 221.334 95.7506 224.348 97.3506 227.308C91.9506 225.894 85.3773 223.468 79.8839 221.494C75.4839 219.961 71.204 218.161 66.9907 216.228C63.044 213.534 59.1372 210.788 55.1639 208.108C52.3905 206.281 49.364 204.881 46.404 203.388C46.324 203.348 46.2572 203.308 46.1639 203.254C43.9905 202.068 42.0839 200.454 40.3506 198.428C40.6706 198.214 41.004 198.001 41.324 197.761C42.0707 196.854 51.7906 190.428 50.6706 184.001C49.884 172.134 43.7774 166.041 32.1907 164.001C29.9507 163.734 27.4439 163.628 25.0173 163.921C24.4439 163.334 23.844 162.788 23.1907 162.321C21.4974 161.508 19.0306 161.108 17.4706 162.374C16.9373 163.414 17.9106 165.081 18.3373 166.254C17.564 166.788 16.8706 167.441 16.2706 168.201C13.9373 168.174 11.6839 168.401 9.61726 168.988C6.76393 169.921 4.69721 172.214 3.43054 174.948C2.60387 175.828 1.84387 176.774 1.16387 177.814C-0.0627936 179.774 -0.129356 182.041 0.470644 184.228C1.51064 187.721 3.25715 191.014 5.17715 194.108C9.65715 201.681 19.6173 203.614 27.8173 201.934C27.8306 201.934 27.8305 201.934 27.8438 201.934C29.6705 203.748 31.6974 205.348 33.9907 206.654C41.3907 210.588 41.5239 210.201 48.6839 215.361C61.1506 224.241 74.9639 231.534 90.0305 234.734C94.0972 235.588 98.2172 235.921 102.364 236.094C103.097 237.348 103.844 238.614 104.577 239.881C108.644 247.614 113.43 255.001 120.177 260.668C130.937 271.054 144.364 278.121 158.257 283.348C163.217 285.148 168.244 286.841 173.417 287.868C176.271 288.281 179.137 288.374 182.017 288.361C182.284 290.001 182.551 291.641 182.817 293.281C179.591 294.934 176.351 296.548 173.124 298.201C168.631 300.108 163.577 303.001 159.231 304.001C146.324 305.774 135.657 307.814 123.124 306.588C108.457 305.028 93.8306 302.548 82.1506 293.828C77.6439 290.828 73.9374 287.601 69.9907 284.041C70.2174 283.188 70.3773 282.268 70.404 281.281C70.0706 276.468 67.7639 271.761 64.1506 268.561C62.1639 266.268 59.3106 264.894 56.1506 264.214C52.0039 262.761 47.5506 262.094 43.2173 262.561C40.9373 262.174 38.6172 262.108 36.3772 262.334C31.1772 263.068 26.3905 266.961 24.9105 272.041C24.7105 273.574 24.7639 275.134 25.0173 276.681C24.9239 276.988 24.8305 277.281 24.7639 277.601C24.6172 281.268 26.5507 284.574 27.3907 288.068C28.4307 291.308 31.1505 293.134 34.2305 294.121C36.5772 295.921 39.4306 297.148 42.5373 297.774C48.924 299.174 55.9772 299.574 62.0305 296.761C63.4972 296.121 64.6305 295.241 65.5105 294.214C69.5371 297.281 73.7906 300.134 78.1373 302.348C93.844 310.174 111.831 312.614 129.231 312.721C140.911 312.788 152.337 310.001 163.591 307.148C168.617 305.454 172.844 302.001 177.417 299.401C179.337 298.108 181.257 296.814 183.177 295.521C185.79 311.774 188.271 328.041 190.684 344.294C193.831 367.028 197.831 389.214 199.564 410.188C200.777 424.974 202.537 439.721 203.431 454.521C204.591 473.774 205.057 493.041 205.777 512.308C206.697 531.654 208.057 550.974 208.51 570.321C208.537 571.414 208.577 572.494 208.604 573.574C208.684 573.001 208.777 572.414 208.857 571.828Z" fill="#100F0D"/>
</svg>

<svg width="328" height="574" fill="none" xmlns="http://www.w3.org/2000/svg"><path d="M174.151 286.601c-5.68-1.707-11.614-4.52-16.654-7.107-10.6-5.613-19.773-11.973-27.6-21.186-5.306-5.68-7.053-9.134-10.613-16.88-.773-1.707-1.613-3.374-2.48-5.04 8.813-.054 17.6-1.094 26.106-3.467 7.4-2.267 15.481-4.267 21.694-9.04a50.887 50.887 0 005.013-3.373c4.534 22.04 8.493 44.213 12.16 66.426-.08.094-.12.187-.093.294.04.133.107.226.187.306.013.067.026.12.026.174-2.6-.227-5.186-.534-7.746-1.107zm-38.574-55.933c11.307-1.614 22.054-5.854 31.507-12.267.6-.387 1.227-.76 1.84-1.133.107.48.2.96.307 1.44-5.454 3.56-11.254 6.586-17.187 9.333-1.28.307-2.547.6-3.813.92-6.774 1.493-13.667 2.467-20.587 2.973-2.307.134-5 .134-7.84.054 5.267-.267 10.546-.6 15.773-1.32zm73.28 341.16c2.52-16.387 4.147-32.92 5.174-49.467 1.506-21.96 3.066-43.947 1.546-65.947-.573-10.866-1.946-21.666-2.853-32.506-1.32-16.84-3.4-33.56-6.147-50.227-4.32-28.12-8.506-56.267-13.28-84.32 4.88.867 9.8 1.427 14.774 1.28-5.04-.147-10.014-.907-14.907-2.08-.013-.04-.013-.067-.013-.107l1.44-1.12c10.946-2.493 23.92-8.973 30.493-13.706 8.293-6.147 17.467-11.08 25.267-17.894 7.066-5.84 12.386-13.32 18.026-20.466 4.987-5.894 10.56-11.28 15.187-17.48 3.267-4.507 5.733-9.547 8.16-14.534 2.92-6.213 6.16-14.493 9.107-21.92.586.107 1.173.187 1.786.24 6.947.614 15.174-.32 20.2-5.64 4.734-7.213 4.933-16.653 3.227-24.88-.974-3.173-2.04-6.76-4.707-8.933-5.693-4.253-13.453-3.853-20-2.093-.213 0-.413-.014-.613 0-2.533-.027-4.92.653-7.053 1.826-3.68 1.387-6.347 3.68-7.174 7.294-.48.866-.906 1.773-1.24 2.706-2.04 6.067.414 12.067 2.56 17.76-8.56 20.667-12.586 38.88-28.733 55.36-9.8 10.894-16.92 24.134-28.427 33.48-.626.507-1.947 1.587-2.547 2.067-5.106 4-11.853 10.187-15 12.787-5.186 3.946-10.919 7.12-16.759 10-.947.426-1.921.866-2.907 1.266 1.826-2.546 3.6-5.146 5.32-7.76 12.947-19.786 25.453-40.12 33.907-62.28 4.733-11.986 7.973-24.453 10.466-37.066 4.787-22.707 7.627-45.96 6.36-69.174-.106-2.626-.28-5.24-.466-7.853 3.453 1.253 7.173 1.773 10.8 1.4 5.146-.653 11.106-3.32 11.92-9.026.253-4.667.28-9.494-1.68-13.814a20.486 20.486 0 00-1.334-3.813 8.291 8.291 0 00-.627-1.36c-.093-.147-.199-.267-.293-.4-.946-1.6-2.106-3.067-3.453-4.294a21.574 21.574 0 00-4.254-2.813c-4.786-3.04-11.026-4.987-15.573-2.667a27.78 27.78 0 00-2.827.467c-4.746 1.413-8.506 5.72-9.546 10.56-.933 1.947-1.027 4.387-.24 8.04.8 3.12 2.453 5.733 4.627 7.867 2.413 3.88 6.026 6.933 10.173 8.893-.72 5.373-1.56 10.733-2.307 16.093-3.2 18.8-7.52 37.374-12.413 55.787-3.68 14.547-7.12 29.147-11.653 43.453-5.694 17.947-13.32 35.2-20.88 52.414-2.427 5.32-4.68 10.72-7.2 15.986a1602.54 1602.54 0 00-5.6-30.546c-2.507-12.707-5.027-25.44-7.72-38.134 5.013-10.626 9.933-21.306 14.866-31.973 6.24-12.867 12.387-25.773 17.92-38.96 4.307-10.493 8.214-21.16 12.427-31.68 2.893-10.04 4.493-20.413 5.907-30.747 2.093-14 1.52-28.373-1.214-42.266 1.694-1.44 3.014-3.32 3.774-5.707 1.84-3.853 1.52-8.186.453-12.213-.84-3.4-1.84-6.84-4.107-9.587-5.507-5.04-12.28-9.493-19.893-10.2-5.027-.426-10.987-.547-14.76 3.347-4.08 4.333-4.24 10.6-4.68 16.213-.547 3.96-.213 8.347 2.973 11.147 2.6 2.28 5.707 3.893 9.04 4.92 2.107 2.56 4.907 4.48 8.32 5.213 1.24.307 2.547.52 3.88.64.854 4.894 1.347 9.747 1.774 14.653 1.16 16.854-.974 33.76-4.267 50.267-3.253 11.013-7.614 21.707-10.787 32.76-3.573 10.587-7.293 21.12-10.986 31.667 2.04-14.32 3.293-28.774 5-43.134 1.053-8.413 1.826-16.866 1.253-25.346.6-.534.76-1.227.227-2.014 2.706-.093 5.386-.64 7.813-1.64 4.453-2.2 7.64-7.266 7.467-12.253-.387-5.053-3.374-9.347-6.414-13.213-2.573-3.36-5.227-6.88-9.093-8.84-7.04-3.88-17.613-6.054-23.493.84-7.427 9.826-.734 23.28 6.826 30.987 1.48 1.466 2.894 3.173 4.507 4.546v.08c.573 7.453.52 14.92-.027 22.36-.666 17.187-.88 34.387-.96 51.573-.466 10.747-2.267 21.414-5.187 31.76-4.933-22.546-10.653-44.906-18.426-66.666-8.547-25.707-20.96-49.88-31.04-74.987a434.375 434.375 0 01-4-10.067c-.84-5.773-2.053-11.613-3.547-17.386 6.947-1.467 12.64-7.56 14.947-14.147.453-3.88-.827-8.413-2.68-11.827-4.653-8.346-14.987-13.826-24.44-11.213-1.987.707-3.613 2.027-5.16 3.48-.027 0-.053.014-.08.014-2.72.573-4.173 2.493-4.747 4.88-.96 1.466-1.493 3.226-1.84 4.92-1.787 12.946 7.147 23.986 20.36 24.24.507 2.08 1.08 4.133 1.707 6.16 3.533 17.626 9.2 34.76 14.987 51.746 9.066 24.787 17.813 49.707 24.853 75.147a4410.846 4410.846 0 00-24.787-37.92c-6.493-8.414-9.64-16.094-17.373-24.507-9.28-10.107-21.493-16.96-33.453-23.373-7.12-3.44-14.52-6.947-22.227-8.907-.214-1.213-.493-2.413-.88-3.547-3.36-6.6-11.16-9.56-18.4-9.08-3.027-.986-6.267-1.373-9.427-1-4.36.547-7.4 3.374-9.2 7.04-1.426 1.667-2.453 3.747-3.04 6.347-.906 4.28-2.533 9.24-.306 13.347 4.466 6.4 13 8.2 20.653 7.013.76.147 1.453.28 2.28.547 1.08.226 2.747.493 3.76-.147 1.653-.013 3.28-.267 4.8-1.067.773-.386 1.267-1 1.467-1.84.04-.133.093-.253.133-.386 2.36-.68 4.506-1.934 6.106-3.84 1.36-2.174 2.067-4.654 2.307-7.214 7.787 2.467 17.294 7.24 25.534 12.107 9.92 5.76 17.893 11.64 25.133 20.6 4.093 5.12 7.84 11.453 14.387 18.973 11.413 15 22.96 29.88 34.653 44.667.08.36.187.707.28 1.053 1.44 5.947 2.813 11.92 4.147 17.894-5.56-8.587-11.04-17.307-17.347-25.547-5.76-6.693-13-11.853-19.48-17.8-4.093-3.493-8.973-8.133-14.307-12.427 0-1.76-.32-3.653-1.08-5.76-3.84-6.333-9.426-12.493-16.733-14.613-3.68-.973-7.48-1.027-11.24-.747-2.88.24-5.84 1.014-7.96 3.04-4.24 3.814-6.373 9.307-6.453 14.934-.734 4.946.506 10.16 3.32 14.28 5.8 10.413 20.026 13.013 30.373 8.36 4.24-2.44 7.253-6.947 8.466-11.734 3.494 2.8 7.054 5.76 11.321 9.107 4.533 3.467 9.106 6.72 13.186 10.213 5.72 4.654 10.067 10.654 14.734 16.307 4.76 5.84 9.466 11.72 14.333 17.467.787 3.586 1.533 7.186 2.28 10.773-1.24.48-2.494.96-3.72 1.467-4.067 1.706-7.36 3.306-10.373 4.306-10.267 4.027-21.667 6.094-30.987 6.334-3.213.093-7.32.413-11.16.733a92.64 92.64 0 01-2.133-4.533 212.462 212.462 0 01-2.614-6.16c2.173-.774 4.28-1.774 6.24-3.054 2.28-1.453 4.614-3.173 5.48-5.853 1.094-4.133 2.4-8.76.84-12.933-.666-1.374-1.48-2.72-2.36-4-.48-1.84-1.16-3.627-2.146-5.267-3.24-5.627-10.267-6.827-16.147-7.893-7.4-1.214-16.014-.827-21.187 5.346-1.186 1.84-2.52 3.707-3.72 5.627-.72.973-1.32 2.04-1.786 3.173v.014c-.027.066-.067.12-.094.186-1.12 2.347-1.853 4.827-1.773 7.52-.08 1.8-.027 3.64.507 5.374.373.866.906 1.64 1.48 2.373.146.227.28.467.453.68.147.133.307.24.453.36a20.457 20.457 0 002.427 2.133c4.813 3.814 10.493 6.614 16.573 7.627.107.013.214.013.32.04 1.307 3.093 2.814 6.107 4.414 9.067-5.4-1.414-11.974-3.84-17.467-5.814-4.4-1.533-8.68-3.333-12.893-5.266-3.947-2.694-7.854-5.44-11.827-8.12-2.773-1.827-5.8-3.227-8.76-4.72-.08-.04-.147-.08-.24-.134-2.174-1.186-4.08-2.8-5.813-4.826.32-.214.653-.427.973-.667.747-.907 10.467-7.333 9.347-13.76-.787-11.867-6.894-17.96-18.48-20-2.24-.267-4.747-.373-7.174-.08a13.78 13.78 0 00-1.826-1.6c-1.694-.813-4.16-1.213-5.72.053-.534 1.04.44 2.707.866 3.88a9.537 9.537 0 00-2.066 1.947c-2.334-.027-4.587.2-6.654.787-2.853.933-4.92 3.226-6.186 5.96a20.808 20.808 0 00-2.267 2.866c-1.227 1.96-1.293 4.227-.693 6.414 1.04 3.493 2.786 6.786 4.706 9.88 4.48 7.573 14.44 9.506 22.64 7.826h.027c1.826 1.814 3.853 3.414 6.147 4.72 7.4 3.934 7.533 3.547 14.693 8.707 12.467 8.88 26.28 16.173 41.347 19.373 4.066.854 8.186 1.187 12.333 1.36.733 1.254 1.48 2.52 2.213 3.787 4.067 7.733 8.853 15.12 15.6 20.787 10.76 10.386 24.187 17.453 38.08 22.68 4.96 1.8 9.987 3.493 15.16 4.52 2.854.413 5.72.506 8.6.493l.8 4.92c-3.226 1.653-6.466 3.267-9.693 4.92-4.493 1.907-9.547 4.8-13.893 5.8-12.907 1.773-23.574 3.813-36.107 2.587-14.667-1.56-29.293-4.04-40.973-12.76-4.507-3-8.214-6.227-12.16-9.787a11.96 11.96 0 00.413-2.76c-.333-4.813-2.64-9.52-6.253-12.72-1.987-2.293-4.84-3.667-8-4.347-4.147-1.453-8.6-2.12-12.934-1.653-2.28-.387-4.6-.453-6.84-.227-5.2.734-9.987 4.627-11.467 9.707-.2 1.533-.146 3.093.107 4.64-.093.307-.186.6-.253.92-.147 3.667 1.787 6.973 2.627 10.467 1.04 3.24 3.76 5.066 6.84 6.053 2.346 1.8 5.2 3.027 8.306 3.653 6.387 1.4 13.44 1.8 19.494-1.013 1.466-.64 2.6-1.52 3.48-2.547 4.026 3.067 8.28 5.92 12.626 8.134 15.707 7.826 33.694 10.266 51.094 10.373 11.68.067 23.106-2.72 34.36-5.573 5.026-1.694 9.253-5.147 13.826-7.747l5.76-3.88c2.613 16.253 5.094 32.52 7.507 48.773 3.147 22.734 7.147 44.92 8.88 65.894 1.213 14.786 2.973 29.533 3.867 44.333 1.16 19.253 1.626 38.52 2.346 57.787.92 19.346 2.28 38.666 2.733 58.013.027 1.093.067 2.173.094 3.253.08-.573.173-1.16.253-1.746z" fill="#100F0D"/></svg>
